material/.icons/material/diving-snorkel.svg

<svg xmlns="http://www.w3.org/2000/svg" viewBox="0 0 24 24"><path d="M16 3H4a2 2 0 00-2 2v5a2 2 0 002 2h3.15c.42 0 .8.24.95.63a2.003 2.003 0 002.52 1.28c.61-.2 1.08-.68 1.28-1.28.15-.39.53-.63.95-.63H16a2 2 0 002-2V5a2 2 0 00-2-2m0 7h-4.65c-.25-.54-.76-.91-1.35-1-.59.09-1.1.46-1.35 1H4V5h12v5m6-8v13.5a6.5 6.5 0 01-6.5 6.5c-1.71 0-3.35-.68-4.57-1.88-1.98.46-4.05-.33-5.22-2l1.91-.83c.88.93 2.22 1.21 3.38.71.2-.09.39-.2.56-.33.84-.62 1.31-1.63 1.22-2.67l1.91-.83c.41 1.87-.28 3.83-1.79 5 .76.54 1.67.83 2.6.83 2.5 0 4.5-2 4.5-4.5V2h2z"/></svg>

<?xml version="1.0" encoding="UTF-8"?><!DOCTYPE svg PUBLIC "-//W3C//DTD SVG 1.1//EN" "http://www.w3.org/Graphics/SVG/1.1/DTD/svg11.dtd"><svg xmlns="http://www.w3.org/2000/svg" xmlns:xlink="http://www.w3.org/1999/xlink" version="1.1" id="mdi-diving-snorkel" width="24" height="24" viewBox="0 0 24 24"><path d="M16,3H4A2,2 0 0,0 2,5V10A2,2 0 0,0 4,12H7.15C7.57,12 7.95,12.24 8.1,12.63C8.44,13.68 9.58,14.25 10.62,13.91C11.23,13.71 11.7,13.23 11.9,12.63C12.05,12.24 12.43,12 12.85,12H16A2,2 0 0,0 18,10V5A2,2 0 0,0 16,3M16,10H11.35C11.1,9.46 10.59,9.09 10,9C9.41,9.09 8.9,9.46 8.65,10H4V5H16V10M22,2V15.5A6.5,6.5 0 0,1 15.5,22C13.79,22 12.15,21.32 10.93,20.12C8.95,20.58 6.88,19.79 5.71,18.12L7.62,17.29C8.5,18.22 9.84,18.5 11,18C11.2,17.91 11.39,17.8 11.56,17.67C12.4,17.05 12.87,16.04 12.78,15L14.69,14.17C15.1,16.04 14.41,18 12.9,19.17C13.66,19.71 14.57,20 15.5,20C18,20 20,18 20,15.5V2H22Z" /></svg>
